X: 1
T: Come and Find the Quiet Center   [F]
C: Words: Shirley Erena Murray
C: Music: Attr B. F. White
N: 87.87D Beach Spring
M: 3/4
L: 1/8
K: F
"F"FF |\
"C"G2 "F"F2 AA | "Dm"(GF) D2 FF |\
"Bb"D2 "C"C2 "Bb"DF | "F"F4 FF |\
"C"G2 "F"F2 FF | "Dm"(GF) D2 FF |\
"Bb"D2 "C"C2 "Bb"DF | "F"F4 |]
FA |\
"Am"c2 c2 dc | "Dm"A2 F2 FA |\
"F"c2 F2 (A/G/)F | "Bb"D4 dc |\
"F"A2 F2 AA | "Dm"(GF) D2 FF |\
"Bb"D2 "C"C2 "Bb"DF | "F"F4 |]
